src/main/resources/icons/SpringApiIcons/icons/gutter/springProperty.svg

<svg xmlns="http://www.w3.org/2000/svg" width="12" height="12" viewBox="0 0 12 12">
  <g fill="none" fill-rule="evenodd">
    <path fill="#F4AF3D" fill-opacity=".6" d="M4.3492,10.2353 C4.3492,7.9803 6.2032,7.2083 8.4802,6.9723 C9.3622,6.88163333 10.1748667,6.28363333 10.9182,5.1783 C10.5232,2.8103 8.4802,1.0003 6.0002,1.0003 C3.2382,1.0003 1.0002,3.2383 1.0002,6.0003 C1.0002,8.17255334 2.38676035,10.0164108 4.32200319,10.7052981"/>
    <path fill="#231F20" fill-opacity=".7" d="M0.79792,2.101575 C0.79792,2.87677002 0.990844102,3.657825 2.02832,3.657825 C3.0657959,3.657825 3.2,2.598075 3.2,2.094075 C3.2,1.579575 3.12182617,0.559575 2.01952,0.559575 C0.917213828,0.559575 0.79792,1.32637998 0.79792,2.101575 Z M0.8,3.75 C0.8064,3.8055 0.805706667,4.5555 0.79792,6 L0.00032,6 L0.00032,7.5e-05 L0.79792,7.5e-05 L0.79792,0.559575 C1.09354479,0.186575 1.55194479,7.5e-05 2.17312,7.5e-05 C3.10488281,7.5e-05 4.00032,0.433639526 4.00032,2.101575 C4.00032,3.76951047 2.92363281,4.217325 2.17312,4.217325 C1.67277812,4.217325 1.21507146,4.06155 0.8,3.75 Z" transform="translate(4 4)"/>
    <path fill="#62B543" fill-opacity=".7" d="M11.2192131,10.9899124 C10.2096983,12.3338846 8.05467708,11.8829171 6.67242601,11.9454275 C6.67242601,11.9454275 6.42774027,11.9593187 6.18106925,12 C6.18106925,12 6.2743774,11.9603109 6.39349419,11.9191335 C7.36379971,11.5837605 7.82289567,11.5162891 8.41302009,11.2131636 C9.52080623,10.6456094 10.6241255,9.40978998 10.8479658,8.12584753 C10.4260938,9.36117083 9.14310675,10.4238465 7.97526589,10.8544733 C7.17519812,11.1491649 5.72892177,11.4369109 5.72892177,11.437407 L5.67035602,11.4061518 C4.68664987,10.9278981 4.65935227,8.79907392 6.44511147,8.11294857 C7.22830436,7.81180751 7.97725117,7.97750951 8.8234767,7.7755912 C9.72628269,7.56127005 10.7715325,6.88258641 11.1963824,6 C11.6733459,7.41293203 12.2456028,9.6231189 11.2192131,10.9899124 Z"/>
  </g>
</svg>

<svg xmlns="http://www.w3.org/2000/svg" width="12" height="12" viewBox="0 0 12 12"><rect id="frame" width="12" height="12" fill="none"/><g fill="none" fill-rule="evenodd"><path fill="#F4AF3D" fill-opacity=".6" d="M4.35 10.235c0-2.255 1.853-3.027 4.13-3.263.882-.09 1.695-.688 2.438-1.794C10.523 2.81 8.48 1 6 1a5 5 0 0 0-5 5 4.994 4.994 0 0 0 3.322 4.705"/><path fill="#231F20" fill-opacity=".7" d="M4.798 6.102c0 .775.193 1.556 1.23 1.556 1.038 0 1.172-1.06 1.172-1.564 0-.514-.078-1.534-1.18-1.534-1.103 0-1.222.766-1.222 1.542zM4.8 7.75c.006.055.006.806-.002 2.25H4V4h.798v.56c.296-.373.754-.56 1.375-.56C7.105 4 8 4.434 8 6.102S6.924 8.217 6.173 8.217c-.5 0-.958-.155-1.373-.467z"/><path fill="#62B543" fill-opacity=".7" d="M11.22 10.99c-1.01 1.344-3.165.893-4.548.955 0 0-.244.014-.49.055 0 0 .092-.04.211-.08.97-.336 1.43-.404 2.02-.707 1.108-.567 2.211-1.803 2.435-3.087-.422 1.235-1.705 2.298-2.873 2.728-.8.295-2.246.583-2.246.583l-.059-.03c-.983-.48-1.01-2.608.775-3.294.783-.301 1.532-.135 2.378-.337.903-.215 1.949-.893 2.373-1.776.477 1.413 1.05 3.623.023 4.99z"/></g></svg>
